!!!OTL: ACH HAETT ICH HUNDERTTAUSEND GULDEN
!!!ARE: Europa, Mitteleuropa, Deutschland, Ober - Deutschand
!!!SCT: Z0177
!!!YEM: Copyright 1995, estate of Helmut Schaffrath.
**kern
*ICvox
*Ivox
*M2/4
*k[f#]
*G:
{8d
=1
8g
8d
8B
8d
=2
4g
4b
=3
8a
4g}
{8b
=4
8a
8g
8f#
8e
=5
4g
4e
=6
4.d}
{8d
=7
8g
8d
8B
8d
=8
4g
4b
=9
8a
4g}
{8b
=10
8a
8g
8f#
8e
=11
4g
4e
=12
4.d}
{8d
=13
8a
8a
8a
8b
=14
4cc
4b
=15
4.a}
{8g
=16
8f#
8e
8d
8cc
=17
4b
4a
=18
4.g}
==
!!!AGN: Soldaten -, Jaeger - Lied
!!!ONB: ESAC (Essen Associative Code) Database: ZUCCAL
!!!AMT: simple duple
!!!AIN: vox
!!!EED: Helmut Schaffrath
!!!EEV: 1.0
*-
